X: 7
T: Hundred Pipers (bagpipe version)
R: jig, march
O: Scotland 1851
M: 6/8
L: 1/8
K: D
   ag \
| "D"f2A A>BA | "G"B2d d2a | "D"a2f f>ed | "A7"e3- ede \
| "D"f2A A>BA | "G"B2d d2a | "D"a2f "A7"e>fe | "D"d3- d :|
|: cd \
| "A"e2e e>ce | "D"f2a a2f | "A"e2c c>BA | "G"B3- Bcd \
| "A"e2e e>ce | "D"f2a a2f | "A"e2c "G"B>cB | "A"A3- A :|

%%sep 1 1 500

